!!!OTL: Aue in euum sanctissima caro
**kern
*staff1
=1-
*clefF4
*k[b-]
*met(c|)
*M2/2
0F
=2
1C
1F
=3
0BB-
=4
1F
1G
=5
0F
=6
1F
1BB-
=7
0C
=8
0FF
=9
!!linebreak:original
1F
2D\
2C/
=10
1F
1F
=11
1F
1BB-
=12
2F\
2F\
1G
=13
0D
=14
!!linebreak:original
1F
1D
=15
1C
1F
=16
0BB-
=17
0F;
=18
0F
=19
1C
1F
=20
1.BB-
2C/
=21
2D\
2E\
1F
=22
0C
=23
!LO:TX:Y=120:t=P
0FF
!!linebreak:original
=24
1F
1D
=25
1F
2C/
2C/
=26
1F
1G
=27
1F
1D
=28
0G
1D
!!linebreak:original
=29
1BB-
2BB-/
1BB-
2BB-/
=30
1F
2F\
1BB-
2C/
2D\
2E\
=31
1F
1F
=32
2D\
2C/
1D
=33
0C
!!pagebreak:original
=34
1C
2C/
2C/
=35
1D
1D
=36
1C
1C
=37
0F
=38
1F
1A
=39
1D
1G
=40
0F;
!!linebreak:original
=41
1F
2C/
2F\
=42
1BB-
1BB-
=43
0F
=44
1F
1G
=45
1F
1C
=46
1F
1BB-
=47
0C
=48
0FF;
==
*-
!!title: @{OTL}, @{GTL}, ed. @{ENC}
!!!pag:
!!!GTL: Hymnbook D
!!!EFL: 
!!!YEM: Creative Commons CC/BY/NC/SA 4.0
!!!ENC: Marcin Konik
!!!END: 2015-0m-dd
!!!EED: Marcin Konik
!!!EEV: 
!!!ONB: Encoded in vim by Marcin Konik
!!!CharacterEncoding: utf-8
!!!RDF**kern: l=long note in original notation
!!!RDF**kern: i=editorial accidental
!!muse2ps: z14jc180F
!!!COM: Anonim
!!!CDT: [?]
!!!TXO: Polish
!!!ODT: 
!!!GTL: Hymnbook D
!!!ARL: Opactwo św. Wojciecha, Staniątki 
!!!voices:	1
